picto/emergency-exit-right-framed.svg

<svg class="color-immutable" width="30" height="30" viewBox="0 0 30 30" fill="none" xmlns="http://www.w3.org/2000/svg"><path d="M30 0H0V30H30V0Z" fill="#237F52"/><path d="M25.5 3C26.325 3 27 3.675 27 4.5V25.5C27 26.325 26.325 27 25.5 27H4.5C3.675 27 3 26.325 3 25.5V4.5C3 3.675 3.675 3 4.5 3H25.5ZM25.5 2.625H4.5C3.46613 2.625 2.625 3.46613 2.625 4.5V25.5C2.625 26.5339 3.46613 27.375 4.5 27.375H25.5C26.5339 27.375 27.375 26.5339 27.375 25.5V4.5C27.375 3.46613 26.5339 2.625 25.5 2.625Z" fill="white"/><path d="M11.1847 6.00015V16.3217H8.10148C7.52855 16.3217 7.06543 16.7857 7.06543 17.3564C7.06543 17.929 7.52855 18.3913 8.10148 18.3929L11.1847 18.3915V22.7569L9.94506 24H15.9677L16.9579 22.9445C17.2152 22.6702 17.7571 22.5512 18.1688 22.6811C18.5794 22.8101 18.7035 23.138 18.4465 23.414L17.8967 24.0001H21.6875L22.935 22.757V6.00015H11.1847ZM21.1426 7.61295C21.8887 7.61295 22.4934 8.21678 22.4934 8.96295C22.4934 9.70838 21.8887 10.313 21.1426 10.313C20.3981 10.313 19.7934 9.7083 19.7934 8.96295C19.7934 8.21678 20.3982 7.61295 21.1426 7.61295ZM22.1608 14.933H19.7023C19.4155 14.933 19.1825 14.7005 19.1825 14.4131V12.4738L16.9051 14.7525L18.9803 16.8276C19.111 16.9592 19.1826 17.1341 19.1826 17.3189V21.512C19.1826 21.8944 18.8731 22.2053 18.4907 22.2053C18.1083 22.2053 17.7977 21.8944 17.7977 21.512V17.7027L15.1899 15.0962L12.4387 17.8474C12.3088 17.9781 12.1331 18.0494 11.9497 18.0494H8.10088C7.7183 18.0494 7.409 17.7393 7.409 17.3577C7.409 16.9739 7.71838 16.6644 8.10088 16.6644H11.5642L17.4865 10.7413H16.1146L14.1881 12.6695C14.0962 12.7604 13.9736 12.811 13.8445 12.811C13.5769 12.811 13.3595 12.5935 13.3595 12.3269C13.3595 12.197 13.4107 12.0743 13.5019 11.9841L15.5451 9.94148C15.6742 9.81165 15.8512 9.73785 16.0348 9.73785H18.4549C19.4125 9.73785 20.1877 10.5143 20.1877 11.4695V13.8938H22.1608C22.4485 13.8938 22.681 14.1254 22.681 14.4131C22.6809 14.7006 22.4485 14.933 22.1608 14.933Z" fill="white"/></svg>

<svg class="color-immutable" width="30" height="30" viewBox="0 0 30 30" fill="none" xmlns="http://www.w3.org/2000/svg"><g clip-path="url(#a)"><path d="M30 0H0v30h30V0Z" fill="#237F52"/><path d="M25.5 3c.825 0 1.5.675 1.5 1.5v21c0 .825-.675 1.5-1.5 1.5h-21c-.825 0-1.5-.675-1.5-1.5v-21C3 3.675 3.675 3 4.5 3h21Zm0-.375h-21A1.877 1.877 0 0 0 2.625 4.5v21c0 1.034.841 1.875 1.875 1.875h21a1.877 1.877 0 0 0 1.875-1.875v-21A1.877 1.877 0 0 0 25.5 2.625Z" fill="#fff"/><path d="M11.185 6v10.322H8.1a1.035 1.035 0 1 0 0 2.07h3.084v4.365L9.945 24h6.023l.99-1.055c.257-.275.8-.394 1.21-.264.411.13.535.457.279.733l-.55.586h3.79l1.248-1.243V6h-11.75Zm9.958 1.613a1.35 1.35 0 1 1 .001 2.7 1.35 1.35 0 0 1-.001-2.7Zm1.018 7.32h-2.459a.52.52 0 0 1-.52-.52v-1.94l-2.277 2.28 2.075 2.075c.131.131.203.306.203.49v4.194a.693.693 0 1 1-1.385 0v-3.81l-2.608-2.606-2.751 2.751a.687.687 0 0 1-.49.202H8.102a.692.692 0 1 1 0-1.385h3.463l5.922-5.923h-1.371l-1.927 1.928a.487.487 0 0 1-.829-.342.48.48 0 0 1 .143-.343l2.043-2.043a.692.692 0 0 1 .49-.203h2.42c.958 0 1.733.776 1.733 1.732v2.424h1.973a.519.519 0 1 1 0 1.039Z" fill="#fff"/></g><defs><clipPath id="a"><path fill="#fff" d="M0 0h30v30H0z"/></clipPath></defs></svg>
